logos/amazon-ecr.svg

<?xml version="1.0" encoding="UTF-8"?>
<svg width="80px" height="80px" viewBox="0 0 80 80" version="1.1" xmlns="http://www.w3.org/2000/svg" xmlns:xlink="http://www.w3.org/1999/xlink">
    <!-- Generator: Sketch 64 (93537) - https://sketch.com -->
    <title>Icon-Architecture/64/Arch_Amazon-Elastic-Container-Registry_64</title>
    <desc>Created with Sketch.</desc>
    <defs>
        <linearGradient x1="0%" y1="100%" x2="100%" y2="0%" id="linearGradient-1">
            <stop stop-color="#C8511B" offset="0%"></stop>
            <stop stop-color="#FF9900" offset="100%"></stop>
        </linearGradient>
    </defs>
    <g id="Icon-Architecture/64/Arch_Amazon-Elastic-Container-Registry_64" stroke="none" stroke-width="1" fill="none" fill-rule="evenodd">
        <g id="Icon-Architecture-BG/64/Containers" fill="url(#linearGradient-1)">
            <rect id="Rectangle" x="0" y="0" width="80" height="80"></rect>
        </g>
        <path d="M38.7880741,37.5776945 C38.2933845,37.8655125 37.9855777,38.4000317 37.9855777,38.973662 L37.9855777,66.7195186 L16.9987459,54.9841655 L16.9987459,27.7076428 L40.5569643,14.0588515 L61.484833,24.4283226 L38.7880741,37.5776945 Z M63.9203049,24.4022485 C63.9203049,23.8276153 63.6134974,23.2920933 63.0598448,22.9751927 L41.3464689,12.2146099 C40.8507799,11.9287976 40.2351662,11.9277948 39.7404766,12.2156128 L15.8024965,26.0840283 C15.3078069,26.3718463 15,26.9063655 15,27.4799958 L15,55.2158239 C15,55.7894542 15.3078069,56.3239734 15.8174871,56.6198142 L37.573836,68.7853901 C37.8216805,68.9287976 38.1005056,69 38.3783312,69 C38.6551575,69 38.9339826,68.9287976 39.1808277,68.7853901 C39.6765167,68.4985749 39.9843236,67.9640557 39.9843236,67.3894226 L39.9843236,39.201309 L63.1178084,25.798216 C63.6134974,25.5114008 63.9203049,24.9768817 63.9203049,24.4022485 L63.9203049,24.4022485 Z M63.9692742,55.0473451 L44.9811883,66.6613533 L44.9811883,56.2617967 L54.881976,49.872638 L54.9499334,49.424364 C54.9679221,49.3070305 54.9749177,49.3070305 54.9749177,48.7664942 L55.0058983,36.3602344 L64.0002547,31.1484218 L63.9692742,55.0473451 Z M65.1965042,29.0715191 C64.6998158,28.7816953 64.0842021,28.7826982 63.5885131,29.0715191 L54.0135209,34.6182835 C53.713709,34.7817481 53.0081517,35.1658398 53.0081517,35.9580914 L52.9761718,48.7173546 L43.8508975,54.606091 C43.3062392,54.9310145 42.9824424,55.4454766 42.9824424,55.9890214 L42.9824424,67.3081917 C42.9824424,67.8748021 43.2872511,68.3912699 43.7979307,68.6871107 C44.0647633,68.8405468 44.361577,68.9187691 44.6573914,68.9187691 C44.948209,68.9187691 45.2390265,68.8445582 45.5018616,68.692125 L65.1675223,56.6639396 C65.6622119,56.3761216 65.9680201,55.8416024 65.9680201,55.2709807 L66,30.4664837 C66,29.8928534 65.6921931,29.3583342 65.1965042,29.0715191 L65.1965042,29.0715191 Z" id="Amazon-Elastic-Container-Registry_Icon_64_Squid" fill="#FFFFFF"></path>
    </g>
</svg>

<svg width="80" height="80" xmlns="http://www.w3.org/2000/svg">
	<defs>
		<linearGradient x1="0%" y1="100%" x2="100%" y2="0%" id="a">
			<stop stop-color="#C8511B" offset="0%"/>
			<stop stop-color="#F90" offset="100%"/>
		</linearGradient>
	</defs>
	<g fill="none" fill-rule="evenodd">
		<path d="M0 0h80v80H0z" fill="url(#a)"/>
		<path d="M38.788 37.578a1.62 1.62 0 0 0-.802 1.396V66.72L16.999 54.984V27.708l23.558-13.65 20.928 10.37-22.697 13.15ZM63.92 24.402c0-.574-.307-1.11-.86-1.427l-21.714-10.76a1.606 1.606 0 0 0-1.606 0L15.802 26.085A1.62 1.62 0 0 0 15 27.48v27.736c0 .573.308 1.108.817 1.404l21.757 12.165a1.607 1.607 0 0 0 2.41-1.396V39.201l23.134-13.403c.495-.287.802-.821.802-1.396Zm.05 30.645L44.98 66.661v-10.4l9.901-6.388.068-.449c.018-.117.025-.117.025-.658l.03-12.406L64 31.148l-.03 23.9Zm1.227-25.975a1.598 1.598 0 0 0-1.608 0l-9.575 5.546c-.3.164-1.006.548-1.006 1.34l-.032 12.76-9.125 5.888c-.545.325-.869.84-.869 1.383v11.32c0 .566.305 1.082.816 1.378.267.154.564.232.86.232.29 0 .581-.074.844-.227l19.666-12.028c.494-.288.8-.822.8-1.393L66 30.466c0-.573-.308-1.108-.803-1.394Z" fill="#FFF"/>
	</g>
</svg>
